img/horizontal-logo.svg

<svg width="99" height="11" viewBox="0 0 99 11" fill="none" xmlns="http://www.w3.org/2000/svg">
<path d="M7.96379 7.66658C7.96379 8.02926 7.89605 8.3417 7.76059 8.60388C7.6295 8.86606 7.45253 9.08892 7.22967 9.27244C7.00682 9.45597 6.74901 9.60673 6.45624 9.72471C6.16784 9.83832 5.86633 9.9279 5.55171 9.99345C5.23709 10.059 4.92029 10.1027 4.6013 10.1245C4.28668 10.1464 3.99172 10.1573 3.71643 10.1573C3.44551 10.1573 3.16367 10.1464 2.8709 10.1245C2.58249 10.1071 2.29409 10.0743 2.00569 10.0262C1.71729 9.97815 1.43326 9.91479 1.1536 9.83614C0.873941 9.75311 0.609574 9.65042 0.360501 9.52807L0.347391 1.0858C0.592095 0.985301 0.852092 0.895722 1.12738 0.817068C1.40267 0.734043 1.68234 0.666313 1.96637 0.613876C2.25477 0.55707 2.54098 0.515558 2.82501 0.48934C3.10904 0.458752 3.38434 0.443458 3.65089 0.443458C3.96114 0.443458 4.27357 0.463122 4.58819 0.502449C4.90718 0.541776 5.21306 0.607322 5.50583 0.699086C5.7986 0.790849 6.0717 0.911016 6.32515 1.05959C6.57859 1.20379 6.79926 1.38294 6.98716 1.59706C7.17942 1.81118 7.32799 2.06025 7.43287 2.34428C7.54211 2.62831 7.59673 2.95604 7.59673 3.32746C7.59673 3.57217 7.56177 3.80158 7.49186 4.01569C7.42194 4.22981 7.32144 4.42207 7.19035 4.59249C7.05926 4.76291 6.89976 4.9093 6.71186 5.03165C6.52397 5.14963 6.31204 5.23702 6.07607 5.29383C6.3601 5.36811 6.61792 5.47736 6.84951 5.62156C7.08547 5.76576 7.2843 5.94055 7.44598 6.14592C7.61202 6.3513 7.73875 6.58289 7.82614 6.8407C7.9179 7.09852 7.96379 7.37381 7.96379 7.66658ZM4.63407 3.93048C4.63407 3.80376 4.60785 3.6967 4.55542 3.60931C4.50298 3.51754 4.43743 3.44326 4.35878 3.38645C4.28449 3.32965 4.20147 3.28814 4.10971 3.26192C4.02231 3.2357 3.94366 3.22259 3.87374 3.22259C3.78635 3.22259 3.70114 3.2357 3.61811 3.26192C3.53509 3.28814 3.45425 3.31872 3.3756 3.35368L3.33627 4.80879C3.43677 4.80879 3.56131 4.80005 3.70988 4.78257C3.85845 4.76509 4.00046 4.72795 4.13592 4.67115C4.27576 4.60997 4.39374 4.52258 4.48987 4.40896C4.586 4.29098 4.63407 4.13149 4.63407 3.93048ZM3.70332 6.06727C3.5766 6.06727 3.45425 6.08038 3.33627 6.10659L3.31005 7.60103C3.3756 7.61414 3.43896 7.62725 3.50013 7.64036C3.56568 7.6491 3.62904 7.65347 3.69021 7.65347C3.78198 7.65347 3.88248 7.64473 3.99172 7.62725C4.10097 7.6054 4.20366 7.56608 4.29979 7.50927C4.39592 7.44809 4.47458 7.36725 4.53575 7.26675C4.6013 7.16625 4.63407 7.03297 4.63407 6.86692C4.63407 6.70087 4.6013 6.56541 4.53575 6.46054C4.47458 6.35567 4.39811 6.27483 4.30634 6.21802C4.21458 6.15685 4.11408 6.11752 4.00483 6.10004C3.89559 6.07819 3.79509 6.06727 3.70332 6.06727ZM15.5015 4.70392C15.5015 5.08408 15.4753 5.46425 15.4229 5.84441C14.6756 5.89248 13.9328 5.97113 13.1943 6.08038C12.4558 6.18525 11.7174 6.29012 10.9789 6.39499C11.0925 6.70961 11.2695 6.96087 11.5098 7.14877C11.7545 7.33667 12.0451 7.43061 12.3816 7.43061C12.5563 7.43061 12.7464 7.39784 12.9518 7.3323C13.1615 7.26675 13.3691 7.18591 13.5745 7.08978C13.7799 6.98927 13.9765 6.88222 14.1644 6.7686C14.3523 6.65499 14.514 6.5523 14.6494 6.46054L14.3348 9.43631C14.1644 9.5674 13.9787 9.67883 13.7777 9.77059C13.581 9.86235 13.3757 9.93664 13.1615 9.99345C12.9474 10.0503 12.7311 10.0918 12.5126 10.118C12.2942 10.1442 12.08 10.1573 11.8703 10.1573C11.4377 10.1573 11.0422 10.0983 10.6839 9.98034C10.3256 9.86235 10.0001 9.69849 9.7073 9.48874C9.4189 9.27463 9.16545 9.02337 8.94697 8.73497C8.72848 8.44657 8.54714 8.13195 8.40294 7.79111C8.25874 7.45028 8.1495 7.08978 8.07521 6.70961C8.00093 6.32945 7.96378 5.94491 7.96378 5.55601C7.96378 5.14963 8.00093 4.74325 8.07521 4.33686C8.1495 3.93048 8.26092 3.53939 8.40949 3.1636C8.56243 2.7878 8.75252 2.44041 8.97974 2.12142C9.21134 1.79807 9.48007 1.51622 9.78595 1.27589C10.0918 1.03555 10.437 0.847656 10.8216 0.712195C11.2105 0.576734 11.6387 0.509003 12.1063 0.509003C12.4952 0.509003 12.8491 0.563625 13.1681 0.672867C13.4915 0.77774 13.7777 0.92631 14.0267 1.11858C14.2802 1.30647 14.4987 1.53151 14.6822 1.7937C14.8701 2.05588 15.023 2.34428 15.141 2.6589C15.2634 2.96915 15.353 3.29906 15.4098 3.64864C15.4709 3.99384 15.5015 4.3456 15.5015 4.70392ZM12.8797 4.36308C12.8797 4.24073 12.8666 4.11619 12.8404 3.98947C12.8142 3.85838 12.7705 3.7404 12.7093 3.63553C12.6525 3.53065 12.576 3.44544 12.4799 3.3799C12.3837 3.30998 12.2636 3.27503 12.1194 3.27503C11.9446 3.27503 11.7895 3.32309 11.654 3.41923C11.5229 3.51099 11.4093 3.62897 11.3132 3.77317C11.217 3.913 11.1384 4.06594 11.0772 4.23199C11.016 4.39804 10.9701 4.55098 10.9396 4.69081L12.8797 4.50728V4.36308ZM22.6525 6.64407C22.6525 7.24272 22.5477 7.76053 22.3379 8.1975C22.1325 8.6301 21.8485 8.98841 21.4858 9.27244C21.1275 9.55211 20.7058 9.75967 20.2208 9.89513C19.7401 10.0262 19.2223 10.0918 18.6674 10.0918C18.4533 10.0918 18.2173 10.0634 17.9595 10.0066C17.706 9.94975 17.4482 9.87983 17.186 9.79681C16.9239 9.70941 16.6704 9.61765 16.4257 9.52152C16.1854 9.42101 15.9713 9.32707 15.7834 9.23967L16.0718 6.67029C16.4432 6.89314 16.8539 7.06356 17.304 7.18154C17.7585 7.29515 18.2042 7.35196 18.6412 7.35196C18.7242 7.35196 18.8247 7.34977 18.9427 7.3454C19.0606 7.33667 19.1721 7.317 19.2769 7.28641C19.3862 7.25146 19.478 7.2012 19.5522 7.13566C19.6265 7.07011 19.6637 6.97617 19.6637 6.85381C19.6637 6.77079 19.6374 6.70087 19.585 6.64407C19.5326 6.58289 19.4648 6.53482 19.3818 6.49987C19.2988 6.46054 19.2048 6.43214 19.1 6.41466C18.9951 6.39281 18.8924 6.37752 18.7919 6.36878C18.6914 6.36004 18.5975 6.35567 18.5101 6.35567C18.4227 6.35567 18.3528 6.35567 18.3003 6.35567C17.9245 6.35567 17.5815 6.29668 17.2713 6.17869C16.9654 6.06071 16.701 5.89466 16.4782 5.68055C16.2597 5.46206 16.0892 5.19988 15.9669 4.894C15.8445 4.58375 15.7834 4.24073 15.7834 3.86494C15.7834 3.34931 15.8861 2.88831 16.0914 2.48192C16.3012 2.07117 16.5787 1.72378 16.9239 1.43975C17.2734 1.15135 17.6733 0.93068 18.1233 0.77774C18.5734 0.624801 19.0388 0.548331 19.5195 0.548331C19.7336 0.548331 19.9543 0.55707 20.1815 0.574549C20.4087 0.587658 20.6337 0.613876 20.8566 0.653204C21.0838 0.692531 21.3045 0.742783 21.5186 0.803958C21.7327 0.865134 21.9359 0.941604 22.1282 1.03337L21.8791 3.69452C21.582 3.59401 21.2695 3.51099 20.9418 3.44544C20.6184 3.37553 20.3016 3.34057 19.9914 3.34057C19.9346 3.34057 19.8603 3.34276 19.7685 3.34713C19.6811 3.34713 19.5872 3.35368 19.4867 3.36679C19.3906 3.37553 19.2922 3.39082 19.1917 3.41267C19.0912 3.43452 19.0017 3.46511 18.923 3.50444C18.8443 3.53939 18.781 3.58746 18.7329 3.64864C18.6849 3.70981 18.663 3.78191 18.6674 3.86494C18.6717 3.96107 18.7067 4.03535 18.7722 4.08779C18.8422 4.14023 18.9296 4.17955 19.0344 4.20577C19.1437 4.22762 19.2617 4.23855 19.3884 4.23855C19.5195 4.23855 19.6484 4.23636 19.7751 4.23199C19.9018 4.22325 20.0198 4.2167 20.129 4.21233C20.2383 4.20359 20.3279 4.2014 20.3978 4.20577C20.7474 4.22762 21.062 4.30191 21.3416 4.42863C21.6213 4.55535 21.8573 4.72358 22.0495 4.93333C22.2462 5.14307 22.3947 5.39433 22.4952 5.6871C22.6001 5.9755 22.6525 6.29449 22.6525 6.64407ZM29.8626 0.758077L29.797 3.53721L27.8438 3.61586L27.6078 9.69849L24.8418 9.84269L24.5927 3.76006L22.6394 3.86494L22.7181 0.771186L29.8626 0.758077ZM75.207 3.9567C75.207 4.38056 75.1436 4.75636 75.0169 5.08408C74.8902 5.41181 74.7154 5.70021 74.4925 5.94928C74.274 6.19399 74.0162 6.40155 73.7191 6.57197C73.4219 6.73802 73.103 6.87566 72.7621 6.9849C72.4257 7.08978 72.0761 7.16843 71.7134 7.22087C71.3507 7.26894 70.9946 7.29515 70.645 7.29952V10.0918H67.5906C67.5906 9.59362 67.5906 9.10858 67.5906 8.63665C67.5949 8.16472 67.5971 7.69717 67.5971 7.23398C67.6015 6.76642 67.6037 6.29668 67.6037 5.82475C67.6081 5.35282 67.6124 4.8656 67.6168 4.36308C67.6255 3.82998 67.6277 3.29687 67.6234 2.76377C67.619 2.23067 67.6299 1.69319 67.6561 1.15135C68.2154 0.985301 68.7748 0.860765 69.3341 0.77774C69.8934 0.694716 70.4702 0.653204 71.0645 0.653204C71.401 0.653204 71.7374 0.681607 72.0739 0.738413C72.4104 0.790849 72.7315 0.876059 73.0374 0.994041C73.3477 1.11202 73.6339 1.26059 73.8961 1.43975C74.1626 1.61454 74.392 1.82428 74.5843 2.06899C74.7766 2.31369 74.9273 2.59335 75.0366 2.90797C75.1502 3.22259 75.207 3.57217 75.207 3.9567ZM72.2968 4.17955C72.2968 3.89552 72.2094 3.67485 72.0346 3.51754C71.8641 3.35587 71.6413 3.27503 71.366 3.27503C71.2742 3.27503 71.1781 3.28377 71.0776 3.30124C70.9815 3.31435 70.8897 3.33183 70.8023 3.35368L70.7237 5.26761C70.7848 5.27635 70.8438 5.28072 70.9006 5.28072C70.9574 5.28072 71.0164 5.28072 71.0776 5.28072C71.2349 5.28072 71.3857 5.2545 71.5299 5.20207C71.6784 5.14963 71.8095 5.07534 71.9231 4.97921C72.0368 4.87871 72.1263 4.76291 72.1919 4.63182C72.2618 4.49636 72.2968 4.3456 72.2968 4.17955ZM81.3289 6.52609L81.0536 9.43631L75.5347 9.86891L75.7444 0.509003H79.1528L78.6678 6.52609H81.3289ZM89.9023 9.43631L86.6512 9.8558L86.258 8.37447H84.7635L84.4358 9.8558L81.093 9.52807L83.7017 0.797404L87.346 0.613876L89.9023 9.43631ZM86.022 6.36878L85.5238 4.08779L85.0388 6.36878H86.022ZM98.1741 6.68339C98.1741 7.17717 98.1676 7.66658 98.1545 8.15162C98.1457 8.63228 98.1304 9.11732 98.1086 9.60673L94.3332 9.54118C94.4643 8.76774 94.5779 7.99649 94.674 7.22742C94.7701 6.45399 94.8182 5.67399 94.8182 4.88745C94.8182 4.83064 94.816 4.73888 94.8116 4.61216C94.8073 4.48543 94.7985 4.34342 94.7854 4.18611C94.7723 4.02443 94.7527 3.86057 94.7264 3.69452C94.7046 3.5241 94.6718 3.36897 94.6281 3.22914C94.5888 3.08931 94.5385 2.9757 94.4774 2.88831C94.4206 2.79654 94.3506 2.75066 94.2676 2.75066C94.1191 2.75066 93.9923 2.79436 93.8875 2.88175C93.787 2.96915 93.7017 3.08276 93.6318 3.22259C93.5663 3.35805 93.5138 3.51099 93.4745 3.68141C93.4352 3.85183 93.4046 4.02225 93.3828 4.19266C93.3653 4.36308 93.3522 4.52476 93.3434 4.6777C93.3391 4.82627 93.3369 4.94862 93.3369 5.04476C93.315 5.81819 93.2975 6.58726 93.2844 7.35196C93.2713 8.11229 93.2538 8.88136 93.232 9.65916L89.8892 9.80336C89.9766 8.26086 90.0596 6.72709 90.1383 5.20207C90.2213 3.67704 90.2868 2.14327 90.3349 0.600767L93.4286 0.443458L93.4024 1.49219C93.5248 1.34362 93.6559 1.20379 93.7957 1.0727C93.9399 0.941604 94.0928 0.830177 94.2545 0.738413C94.4162 0.642279 94.5866 0.567994 94.7658 0.515558C94.9493 0.458752 95.1416 0.430349 95.3426 0.430349C95.714 0.430349 96.0395 0.491525 96.3192 0.613876C96.5989 0.736228 96.8392 0.902277 97.0402 1.11202C97.2412 1.32177 97.4094 1.57084 97.5449 1.85924C97.6804 2.14327 97.7896 2.44697 97.8726 2.77033C97.9557 3.09368 98.019 3.43234 98.0627 3.78628C98.1064 4.13586 98.1348 4.48106 98.1479 4.8219C98.1654 5.16274 98.1741 5.49265 98.1741 5.81164C98.1741 6.13063 98.1741 6.42121 98.1741 6.68339Z" fill="#333333"/>
<path d="M39.7993 0.758077L39.7337 3.53721L37.7805 3.61586L37.5445 9.69849L34.7785 9.84269L34.5294 3.76006L32.5761 3.86494L32.6548 0.771186L39.7993 0.758077ZM48.1432 4.97921C48.1432 5.37685 48.0973 5.76139 48.0056 6.13281C47.9138 6.49987 47.7805 6.84507 47.6057 7.16843C47.4353 7.49179 47.2256 7.78893 46.9765 8.05985C46.7318 8.3264 46.4543 8.55581 46.1441 8.74808C45.8382 8.94035 45.5039 9.0911 45.1412 9.20034C44.7785 9.30522 44.394 9.35765 43.9876 9.35765C43.5943 9.35765 43.2186 9.3074 42.8602 9.2069C42.5063 9.1064 42.1742 8.96657 41.8639 8.78741C41.5537 8.60388 41.2719 8.38539 41.0184 8.13195C40.7693 7.87414 40.5552 7.59011 40.3761 7.27986C40.2013 6.96524 40.0636 6.62877 39.9631 6.27046C39.867 5.91214 39.8189 5.53853 39.8189 5.14963C39.8189 4.76946 39.8648 4.39804 39.9566 4.03535C40.0483 3.6683 40.1794 3.32309 40.3498 2.99973C40.5246 2.67638 40.7344 2.37924 40.9791 2.10832C41.2238 1.83739 41.4969 1.60361 41.7984 1.40698C42.1043 1.21034 42.4342 1.0574 42.7881 0.948159C43.1421 0.838916 43.5157 0.784295 43.909 0.784295C44.5426 0.784295 45.1194 0.882613 45.6394 1.07925C46.1637 1.27589 46.6094 1.55773 46.9765 1.92479C47.3479 2.28747 47.6341 2.72881 47.8351 3.24881C48.0405 3.76443 48.1432 4.34123 48.1432 4.97921ZM45.233 5.14963C45.233 4.96173 45.2046 4.78039 45.1478 4.6056C45.0953 4.42644 45.0167 4.26913 44.9118 4.13367C44.8069 3.99384 44.6758 3.88241 44.5185 3.79939C44.3656 3.712 44.1886 3.6683 43.9876 3.6683C43.7822 3.6683 43.5987 3.70544 43.437 3.77973C43.2754 3.85401 43.1355 3.9567 43.0175 4.08779C42.9039 4.21451 42.8165 4.36527 42.7554 4.54006C42.6942 4.71047 42.6636 4.89182 42.6636 5.08408C42.6636 5.26761 42.6898 5.45114 42.7423 5.63467C42.7947 5.81819 42.8733 5.98424 42.9782 6.13281C43.0831 6.28138 43.212 6.40155 43.3649 6.49331C43.5222 6.58508 43.7036 6.63096 43.909 6.63096C44.1143 6.63096 44.2979 6.59163 44.4595 6.51298C44.6256 6.42995 44.7654 6.32071 44.879 6.18525C44.9927 6.04542 45.08 5.88592 45.1412 5.70677C45.2024 5.52761 45.233 5.3419 45.233 5.14963ZM56.4151 0.771186C56.2184 2.30932 56.0502 3.8409 55.9104 5.36593C55.7705 6.88659 55.6373 8.41817 55.5105 9.96067L52.8232 10.1573L52.9411 9.14791C52.8538 9.24841 52.7511 9.33581 52.6331 9.41009C52.5195 9.48437 52.3971 9.54555 52.266 9.59362C52.1349 9.63731 51.9995 9.67009 51.8596 9.69194C51.7198 9.70941 51.5865 9.71597 51.4598 9.7116C51.1627 9.70723 50.883 9.65042 50.6208 9.54118C50.3586 9.42757 50.1183 9.279 49.8998 9.09547C49.6813 8.90757 49.4847 8.69127 49.3099 8.44657C49.1351 8.1975 48.9866 7.9375 48.8642 7.66658C48.7462 7.39129 48.6545 7.11163 48.5889 6.8276C48.5277 6.54356 48.4972 6.26827 48.4972 6.00172C48.4972 5.60845 48.5037 5.20207 48.5168 4.78257C48.5343 4.35871 48.5627 3.93485 48.602 3.51099C48.6414 3.08713 48.6916 2.66764 48.7528 2.25252C48.8183 1.83739 48.8992 1.43975 48.9953 1.05959C49.5284 1.0858 50.0637 1.10984 50.6012 1.13169C51.1386 1.15353 51.6739 1.16009 52.207 1.15135C52.1065 1.53151 52.006 1.91386 51.9055 2.2984C51.8094 2.67856 51.722 3.0631 51.6433 3.452C51.5647 3.83653 51.5013 4.22325 51.4533 4.61216C51.4052 5.00106 51.3812 5.39433 51.3812 5.79198C51.3812 5.88374 51.3855 6.01483 51.3943 6.18525C51.403 6.35567 51.4249 6.5239 51.4598 6.68995C51.4991 6.856 51.5559 7.00238 51.6302 7.1291C51.7089 7.25146 51.8181 7.31263 51.958 7.31263C52.124 7.31263 52.2726 7.24272 52.4037 7.10289C52.5348 6.95869 52.6506 6.76642 52.7511 6.52609C52.8516 6.28575 52.9368 6.00828 53.0067 5.69366C53.081 5.37904 53.1422 5.05131 53.1902 4.71047C53.2427 4.36527 53.2842 4.01788 53.3148 3.6683C53.3453 3.31872 53.3672 2.991 53.3803 2.68512C53.3978 2.37487 53.4087 2.09739 53.4131 1.85269C53.4218 1.60798 53.4262 1.4179 53.4262 1.28244C53.4262 1.19505 53.424 1.10984 53.4196 1.02681C53.4153 0.943789 53.4087 0.85858 53.4 0.771186C53.684 0.779925 53.9658 0.78648 54.2455 0.790849C54.5252 0.795219 54.807 0.797404 55.091 0.797404C55.3095 0.797404 55.528 0.797404 55.7465 0.797404C55.9693 0.793034 56.1922 0.784295 56.4151 0.771186ZM64.4903 3.68141C64.4903 4.02225 64.4597 4.33249 64.3985 4.61216C64.3417 4.88745 64.2499 5.14089 64.1232 5.37248C63.9965 5.60408 63.8326 5.81819 63.6316 6.01483C63.4306 6.21147 63.1881 6.39936 62.9041 6.57852L64.4641 9.35765L61.5145 9.93445L60.5051 7.14221L59.6923 7.16843L59.5744 9.89513H56.7559C56.7777 8.89883 56.7974 7.90691 56.8149 6.91936C56.8367 5.93181 56.8608 4.93988 56.887 3.94359C56.8957 3.44107 56.9045 2.94293 56.9132 2.44915C56.9219 1.95538 56.9394 1.45723 56.9656 0.954713C57.2715 0.841101 57.573 0.747152 57.8702 0.672867C58.1673 0.598582 58.4645 0.541776 58.7616 0.502449C59.0631 0.458752 59.3668 0.430349 59.6727 0.41724C59.9829 0.399761 60.2997 0.391021 60.6231 0.391021C61.1212 0.391021 61.6019 0.460937 62.0651 0.600767C62.5326 0.736228 62.9456 0.941604 63.3039 1.2169C63.6622 1.49219 63.9484 1.83521 64.1625 2.24596C64.381 2.65671 64.4903 3.1352 64.4903 3.68141ZM61.5538 3.89115C61.5538 3.70763 61.5276 3.53939 61.4752 3.38645C61.4271 3.23351 61.3528 3.10242 61.2523 2.99318C61.1562 2.87957 61.0338 2.79217 60.8853 2.731C60.7411 2.66545 60.5706 2.63268 60.374 2.63268C60.2866 2.63268 60.2014 2.63923 60.1184 2.65234C60.0354 2.66108 59.9545 2.67638 59.8759 2.69823L59.771 5.13652H59.9283C60.1162 5.13652 60.3063 5.11249 60.4985 5.06442C60.6952 5.01635 60.87 4.94207 61.0229 4.84156C61.1802 4.74106 61.3069 4.61216 61.4031 4.45485C61.5036 4.29754 61.5538 4.10964 61.5538 3.89115Z" fill="#EC1F46"/>
</svg>

<svg width="99" height="11" fill="none" xmlns="http://www.w3.org/2000/svg"><path d="M7.964 7.667c0 .362-.068.675-.203.937a2.034 2.034 0 01-.531.668c-.223.184-.481.335-.774.453-.288.113-.59.203-.904.268-.315.066-.632.11-.95.131a11.345 11.345 0 01-1.73 0 8.291 8.291 0 01-1.718-.288 5.064 5.064 0 01-.793-.308L.347 1.086c.245-.1.505-.19.78-.269a7.82 7.82 0 01.84-.203 8.47 8.47 0 01.858-.125 7.55 7.55 0 011.763.013c.32.04.625.105.918.197.293.092.566.212.82.36.253.145.473.324.661.538.192.214.341.463.446.747.11.284.164.612.164.983 0 .245-.035.475-.105.689a1.91 1.91 0 01-.302.576c-.13.17-.29.317-.478.44-.188.118-.4.205-.636.262.284.074.542.183.774.328.235.144.434.319.596.524.166.205.293.437.38.695.092.258.138.533.138.826zM4.634 3.93a.614.614 0 00-.079-.32.742.742 0 00-.446-.347.83.83 0 00-.235-.04.844.844 0 00-.256.039 2.307 2.307 0 00-.242.092l-.04 1.455c.1 0 .225-.009.374-.026a1.57 1.57 0 00.426-.112.962.962 0 00.354-.262c.096-.118.144-.278.144-.479zm-.93 2.137c-.127 0-.25.013-.368.04L3.31 7.6c.066.013.129.026.19.04.066.008.129.012.19.012.092 0 .192-.008.302-.026A.978.978 0 004.3 7.51a.722.722 0 00.334-.642.756.756 0 00-.098-.406.751.751 0 00-.53-.36 1.546 1.546 0 00-.303-.034zM15.5 4.704c0 .38-.026.76-.078 1.14-.747.048-1.49.127-2.229.236l-2.215.315c.114.315.29.566.53.754.245.188.536.282.873.282.174 0 .364-.033.57-.099.21-.065.417-.146.623-.242.205-.1.402-.208.59-.321.187-.114.349-.217.484-.308l-.314 2.975c-.17.131-.356.243-.557.335a3.694 3.694 0 01-.617.222 4.71 4.71 0 01-.648.125c-.219.026-.433.04-.643.04-.432 0-.828-.06-1.186-.178a3.597 3.597 0 01-.977-.491 3.766 3.766 0 01-.76-.754 4.386 4.386 0 01-.544-.944 5.45 5.45 0 01-.328-1.081 6.002 6.002 0 01-.111-1.154c0-.406.037-.813.111-1.22a6.23 6.23 0 01.334-1.172c.153-.376.344-.724.57-1.043.232-.323.501-.605.807-.845.306-.24.651-.428 1.036-.564A3.883 3.883 0 0112.106.51c.39 0 .743.055 1.062.164.324.105.61.253.859.446.253.187.472.413.655.675.188.262.341.55.459.865.122.31.212.64.269.99.06.345.091.697.091 1.055zm-2.621-.34c0-.123-.013-.248-.04-.375a1.14 1.14 0 00-.13-.353.719.719 0 00-.23-.256.597.597 0 00-.36-.105.784.784 0 00-.466.144c-.131.092-.245.21-.34.354-.097.14-.176.293-.237.459a3.49 3.49 0 00-.137.459l1.94-.184v-.144zm9.772 2.28c0 .599-.104 1.117-.314 1.553a2.95 2.95 0 01-.852 1.075c-.358.28-.78.488-1.265.623-.48.131-.999.197-1.554.197-.214 0-.45-.029-.708-.085a9.32 9.32 0 01-.773-.21c-.262-.088-.516-.18-.76-.275-.24-.101-.455-.195-.643-.282l.289-2.57c.371.223.782.394 1.232.512a5.501 5.501 0 001.639.163c.118-.008.23-.028.334-.059a.759.759 0 00.275-.15c.075-.066.112-.16.112-.282a.298.298 0 00-.079-.21.536.536 0 00-.203-.144 1.065 1.065 0 00-.282-.085 2.627 2.627 0 00-.308-.046 3.264 3.264 0 00-.282-.013h-.21c-.376 0-.719-.06-1.029-.177a2.35 2.35 0 01-.793-.498 2.31 2.31 0 01-.511-.787 2.781 2.781 0 01-.184-1.03c0-.515.103-.976.308-1.382.21-.41.488-.758.833-1.042.35-.289.75-.51 1.2-.662a4.31 4.31 0 011.396-.23c.214 0 .434.01.662.027a6.35 6.35 0 011.337.23c.214.06.417.137.61.228l-.25 2.662c-.297-.101-.61-.184-.937-.25a4.49 4.49 0 00-1.455-.078 2.421 2.421 0 00-.295.046c-.1.022-.19.052-.269.091a.489.489 0 00-.19.145.312.312 0 00-.066.216c.005.096.04.17.105.223.07.052.158.092.262.118.11.022.228.033.354.033.131 0 .26-.003.387-.007.127-.009.245-.015.354-.02.11-.008.199-.01.269-.006.35.022.664.096.944.223.28.126.515.295.707.504.197.21.346.461.446.754.105.288.157.607.157.957zm7.21-5.886l-.065 2.78-1.953.078-.236 6.082-2.766.145-.25-6.083-1.953.105.08-3.094 7.144-.013zm45.345 3.199c0 .424-.063.8-.19 1.127a2.796 2.796 0 01-.524.865 3.087 3.087 0 01-.774.623 5.224 5.224 0 01-.957.413 6.775 6.775 0 01-1.049.236 8.983 8.983 0 01-1.068.079v2.792h-3.054V8.637c.004-.472.006-.94.006-1.403.005-.468.007-.937.007-1.41l.013-1.46c.008-.534.01-1.067.006-1.6a28.51 28.51 0 01.033-1.613 11.773 11.773 0 013.408-.498c.337 0 .673.029 1.01.085.336.053.657.138.963.256.31.118.597.267.86.446.266.175.495.384.687.629.193.245.343.524.453.839.113.315.17.664.17 1.049zm-2.91.223c0-.284-.088-.505-.262-.662-.17-.162-.394-.243-.669-.243-.092 0-.188.009-.288.026-.097.013-.188.03-.276.053l-.078 1.914c.06.008.12.013.177.013h.177c.157 0 .308-.026.452-.079.148-.052.28-.127.393-.223.114-.1.203-.216.269-.347a.972.972 0 00.105-.452zm9.032 2.346l-.275 2.91-5.52.433.21-9.36h3.409l-.485 6.017h2.66zm8.573 2.91l-3.25.42-.394-1.482h-1.495l-.327 1.482-3.343-.328 2.609-8.73 3.644-.184 2.556 8.822zm-3.88-3.067l-.498-2.281-.485 2.28h.983zm12.152.314c0 .494-.006.984-.02 1.469-.008.48-.024.965-.045 1.455l-3.776-.066c.131-.773.245-1.545.341-2.314a18.96 18.96 0 00.144-2.34 8.945 8.945 0 00-.092-1.192 2.719 2.719 0 00-.098-.466c-.04-.14-.09-.253-.15-.34-.057-.092-.127-.138-.21-.138a.574.574 0 00-.38.13 1.09 1.09 0 00-.256.342 2.175 2.175 0 00-.157.458c-.04.17-.07.341-.092.512-.018.17-.03.332-.04.485-.004.148-.006.27-.006.367-.022.773-.04 1.542-.053 2.307-.013.76-.03 1.53-.052 2.307l-3.343.144c.088-1.542.17-3.076.25-4.6.082-1.526.148-3.06.196-4.602l3.094-.158-.027 1.05c.123-.15.254-.29.394-.42a2.56 2.56 0 01.458-.335c.162-.096.333-.17.512-.222a1.94 1.94 0 01.577-.086c.371 0 .697.062.976.184.28.122.52.288.721.498.201.21.37.459.505.747.135.284.245.588.328.911.083.324.146.662.19 1.016.043.35.072.695.085 1.036.017.34.026.67.026.99v.871z" fill="#333"/><path d="M39.8.758l-.066 2.78-1.953.078-.236 6.082-2.767.145-.249-6.083-1.953.105.079-3.094 7.144-.013zm8.343 4.221c0 .398-.046.782-.137 1.154a4.426 4.426 0 01-.4 1.035c-.17.324-.38.62-.63.892a4.092 4.092 0 01-1.835 1.14 4.133 4.133 0 01-1.153.158 4.156 4.156 0 01-2.124-.57 4.256 4.256 0 01-.846-.656 4.356 4.356 0 01-.642-.852 4.663 4.663 0 01-.413-1.01 4.523 4.523 0 01-.006-2.235c.091-.367.222-.712.393-1.035a4.56 4.56 0 01.63-.892 4.17 4.17 0 01.818-.701c.306-.197.636-.35.99-.459A3.78 3.78 0 0143.91.784c.634 0 1.21.099 1.73.295a3.7 3.7 0 012.196 2.17 4.64 4.64 0 01.308 1.73zm-2.91.17c0-.187-.028-.369-.085-.543a1.41 1.41 0 00-.236-.472 1.165 1.165 0 00-.393-.335 1.051 1.051 0 00-.531-.13c-.206 0-.39.036-.551.11a1.275 1.275 0 00-.682.761c-.06.17-.091.352-.091.544 0 .184.026.367.078.55.053.184.131.35.236.499.105.148.234.269.387.36.157.092.339.138.544.138.205 0 .389-.04.55-.118.167-.083.306-.192.42-.328.114-.14.201-.3.262-.478.061-.18.092-.365.092-.557zM56.415.772a129.2 129.2 0 00-.505 4.595 474.46 474.46 0 00-.4 4.595l-2.687.196.118-1.01c-.087.101-.19.189-.308.263a1.801 1.801 0 01-.367.184 2.506 2.506 0 01-.406.098c-.14.017-.273.024-.4.02a2.247 2.247 0 01-.84-.17 2.92 2.92 0 01-.72-.447 3.647 3.647 0 01-.59-.648 4.785 4.785 0 01-.446-.78 4.959 4.959 0 01-.275-.84 3.917 3.917 0 01-.092-.825c0-.394.007-.8.02-1.22a24.894 24.894 0 01.236-2.53c.065-.415.146-.812.242-1.192.533.026 1.069.05 1.606.072.538.022 1.073.028 1.606.02l-.301 1.146c-.097.38-.184.765-.263 1.154-.078.385-.142.771-.19 1.16a9.603 9.603 0 00-.072 1.18c0 .092.005.223.013.393.009.17.03.339.066.505.04.166.096.312.17.44a.37.37 0 00.328.183c.166 0 .315-.07.446-.21.13-.144.247-.337.347-.577.1-.24.186-.518.256-.832.074-.315.135-.643.183-.984.053-.345.094-.692.125-1.042.03-.35.052-.677.065-.983.018-.31.029-.588.033-.832.009-.245.013-.435.013-.57A4.832 4.832 0 0053.4.77a55.85 55.85 0 001.691.026h.655a17.1 17.1 0 00.67-.026zm8.075 2.91c0 .341-.03.651-.091.931a2.719 2.719 0 01-.276.76c-.127.232-.29.446-.491.643a4.37 4.37 0 01-.728.564l1.56 2.779-2.95.576-1.009-2.792-.813.026-.118 2.727h-2.818c.022-.996.041-1.988.059-2.976.022-.987.046-1.98.072-2.975l.026-1.495c.009-.494.026-.992.053-1.494a8.002 8.002 0 011.796-.452 9.05 9.05 0 01.91-.086c.31-.017.628-.026.951-.026.498 0 .979.07 1.442.21.468.135.88.34 1.239.616.358.275.644.618.858 1.029.219.41.328.89.328 1.435zm-2.936.21c0-.183-.026-.352-.079-.505a1.027 1.027 0 00-.223-.393.94.94 0 00-.367-.262 1.227 1.227 0 00-.511-.098c-.087 0-.173.006-.256.02a1.485 1.485 0 00-.242.045l-.105 2.439h.157c.188 0 .378-.025.57-.073.197-.048.372-.122.525-.222.157-.1.284-.23.38-.387.1-.157.15-.345.15-.564z" fill="#EC1F46"/></svg>
